img/svg/icon-font/goal.svg

<svg width="22" height="22" viewBox="0 0 22 22" fill="none" xmlns="http://www.w3.org/2000/svg">
<path d="M20.385 5.26099L21.452 4.19415C21.6292 4.01674 21.6876 3.75255 21.6015 3.51706C21.5154 3.2814 21.3004 3.11725 21.0503 3.0961L19.0709 2.92909L18.9039 0.949677C18.8829 0.699753 18.7186 0.484741 18.4831 0.398636C18.2476 0.312363 17.9834 0.370773 17.806 0.548187L16.739 1.61502C15.0135 0.557083 13.0407 0 11 0C8.06184 0 5.29942 1.14421 3.22182 3.22182C1.14421 5.29942 0 8.06184 0 11C0 13.9382 1.14421 16.7006 3.22182 18.7782C5.29942 20.8558 8.06184 22 11 22C13.9382 22 16.7006 20.8558 18.7782 18.7782C20.8558 16.7006 22 13.9382 22 11C22 8.95932 21.4429 6.98662 20.385 5.26099ZM17.832 3.57983C17.8586 3.89304 18.107 4.14145 18.4202 4.16797L19.559 4.26398L18.0175 5.80548L16.3363 5.66365L16.1945 3.9825L17.736 2.44099L17.832 3.57983ZM13.1914 11C13.1914 12.2083 12.2083 13.1914 11 13.1914C9.79167 13.1914 8.80859 12.2083 8.80859 11C8.80859 9.79167 9.79167 8.80859 11 8.80859C11.3701 8.80859 11.7187 8.90108 12.0247 9.06372L10.5443 10.5443C10.2925 10.7959 10.2925 11.2039 10.5443 11.4557C10.67 11.5816 10.835 11.6445 11 11.6445C11.165 11.6445 11.33 11.5816 11.4557 11.4557L12.9363 9.9753C13.0989 10.2813 13.1914 10.6299 13.1914 11ZM12.9616 8.1268C12.4027 7.74411 11.7271 7.51953 11 7.51953C9.08084 7.51953 7.51953 9.08084 7.51953 11C7.51953 12.9192 9.08084 14.4805 11 14.4805C12.9192 14.4805 14.4805 12.9192 14.4805 11C14.4805 10.2729 14.2559 9.59731 13.8732 9.03838L15.7135 7.1981C16.5542 8.23842 17.0586 9.56139 17.0586 11C17.0586 14.3407 14.3407 17.0586 11 17.0586C7.65935 17.0586 4.94141 14.3407 4.94141 11C4.94141 7.65935 7.65935 4.94141 11 4.94141C12.4386 4.94141 13.7616 5.44579 14.8019 6.28653L12.9616 8.1268ZM17.8666 17.8666C16.0325 19.7008 13.5939 20.7109 11 20.7109C8.4061 20.7109 5.96745 19.7008 4.13339 17.8666C2.29916 16.0325 1.28906 13.5939 1.28906 11C1.28906 8.4061 2.29916 5.96745 4.13339 4.13339C5.96745 2.29916 8.4061 1.28906 11 1.28906C12.6969 1.28906 14.3407 1.72496 15.7984 2.55563L15.0715 3.28258C14.954 3.40007 14.887 3.55751 14.8828 3.72183C14.8823 3.74533 14.883 3.76883 14.8848 3.7925L14.9716 4.82089C13.8257 4.0817 12.4621 3.65234 11 3.65234C6.94852 3.65234 3.65234 6.94852 3.65234 11C3.65234 15.0515 6.94852 18.3477 11 18.3477C15.0515 18.3477 18.3477 15.0515 18.3477 11C18.3477 9.53789 17.9183 8.1743 17.1791 7.02841L18.2075 7.11519C18.2256 7.11653 18.2438 7.11737 18.2617 7.11737C18.2647 7.11737 18.2679 7.11703 18.271 7.11687C18.2795 7.11687 18.2879 7.1162 18.2965 7.11569C18.3104 7.11485 18.3245 7.11401 18.3383 7.11234C18.3468 7.11116 18.3554 7.10982 18.3639 7.10847C18.3775 7.10629 18.391 7.10378 18.4044 7.10075C18.4129 7.09874 18.4213 7.09656 18.4297 7.09438C18.4428 7.09085 18.4557 7.08682 18.4687 7.08246C18.4771 7.07961 18.4853 7.07675 18.4935 7.07356C18.5061 7.0687 18.5185 7.06332 18.5309 7.05745C18.5388 7.05392 18.5467 7.0504 18.5546 7.04637C18.567 7.03999 18.5791 7.03294 18.591 7.02589C18.5983 7.02153 18.6055 7.0175 18.6125 7.01314C18.6253 7.00475 18.6375 6.99568 18.6498 6.98645C18.6555 6.98209 18.6614 6.97823 18.6669 6.97369C18.6844 6.95959 18.7013 6.94466 18.7174 6.92854L19.4444 6.2016C20.275 7.65935 20.7109 9.30307 20.7109 11C20.7109 13.5939 19.7008 16.0325 17.8666 17.8666Z" fill="#4C51CB"/>
</svg>

<svg width="22" height="22" fill="none" xmlns="http://www.w3.org/2000/svg"><path d="M20.385 5.261l1.067-1.067a.645.645 0 00-.402-1.098l-1.98-.167-.166-1.98a.644.644 0 00-1.098-.4l-1.067 1.066A10.941 10.941 0 0011 0C8.062 0 5.3 1.144 3.222 3.222A10.928 10.928 0 000 11c0 2.938 1.144 5.7 3.222 7.778A10.928 10.928 0 0011 22c2.938 0 5.7-1.144 7.778-3.222A10.928 10.928 0 0022 11c0-2.04-.557-4.013-1.615-5.739zM17.832 3.58a.645.645 0 00.588.588l1.139.096-1.542 1.541-1.68-.141-.142-1.681 1.541-1.542.096 1.139zM13.192 11A2.194 2.194 0 0111 13.191 2.194 2.194 0 018.809 11a2.194 2.194 0 013.216-1.936l-1.48 1.48a.644.644 0 10.91.912l1.481-1.48c.163.305.255.654.255 1.024zm-.23-2.873A3.461 3.461 0 0011 7.52 3.484 3.484 0 007.52 11c0 1.92 1.56 3.48 3.48 3.48s3.48-1.56 3.48-3.48a3.46 3.46 0 00-.607-1.962l1.84-1.84A6.03 6.03 0 0117.06 11 6.065 6.065 0 0111 17.059 6.066 6.066 0 014.941 11 6.066 6.066 0 0111 4.941a6.03 6.03 0 013.802 1.346l-1.84 1.84zm4.905 9.74A9.647 9.647 0 0111 20.71a9.647 9.647 0 01-6.867-2.844A9.647 9.647 0 011.29 11a9.647 9.647 0 012.844-6.867A9.647 9.647 0 0111 1.29c1.697 0 3.34.436 4.798 1.267l-.726.727a.644.644 0 00-.187.51l.087 1.028A7.303 7.303 0 0011 3.652C6.949 3.652 3.652 6.95 3.652 11c0 4.052 3.297 7.348 7.348 7.348 4.052 0 7.348-3.296 7.348-7.348 0-1.462-.43-2.826-1.169-3.972l1.029.087a.737.737 0 00.054.002h.009l.026-.001.041-.004a1.33 1.33 0 00.066-.011l.026-.007a.674.674 0 00.1-.037l.025-.01a.701.701 0 00.036-.021l.021-.013a.72.72 0 00.038-.027l.017-.012a.628.628 0 00.05-.045l.727-.727A9.662 9.662 0 0120.711 11a9.647 9.647 0 01-2.844 6.867z" fill="#4C51CB"/></svg>
